X: 39389
T: Taoing The Mark
R: jig
M: 6/8
K: Gminor
gdB GBg|fde f2 d|cAd BGd|cBA ^FGA|
gdB GBg|fde d2 B|cAd BGd|cAB G3|
gdB GBg|fde f2 d|cAd BGd|cAB cd^f|
gab cba|gdB G2 B|cAd BGd|cAB G2||

